X: 643
T: Mississippi Sawyer  [1]
B: tunes
M:C|
L:1/8
Q: 1/4=100
K:D
V:1 
f(g|a2) a(f a2) a(f|a2) a(f ab)a(f|g2) g(e g2) ge|g2 ge abag|
f2 fe fgfe|defg a2af|edef gecA|d2 dd d2:|
|:fe|d2 fe d2 fe|defg a2 cB|A2 cB A2 cB|ABcd egfe|
d2 fe d2 fe|defg a2 fg|afaf gecA|d2 dd d2:|]
% abcbook-tune_id 63da5934917b24b31e60fb0b
% abcbook-tune_composer_id 
% abcbook-link-0 https://www.youtube.com/watch?v=MI8UzzLJdPk
% abcbook-link-1 36
% abcbook-link-2 312
% abcbook-boost 0
% abcbook-difficulty 0
% abcbook-tags canberra pickers and fiddlers,old time tunes
% abcbook-tablature 
% abcbook-transpose 
% abcbook-tuning 
% abcbook-lastupdated 1675341107926
% abcbook-soundfonts 
% abcbook-repeats 1
%%gchordfont "itim-music,Itim" 20

